X:1
T:Babylon Streams Received Our Tears
T:Tune: Griffith Hugh Jones, 1890 Text under copyright; for copyrighted material see Psalter Hymnal 137
T:LM LLEF www.hymnary.org/text/babylon_streams_receive_our_tears
T:Babylon Streams Received Our Tears
T:This music is in the public domain. You may freely use this score for personal and congregational worship. If you reproduce the score, please credit Hymnary.org as the source. 
T:This music is in the public domain. You may freely use this score for personal and congregational worship. If you reproduce the score, please credit Hymnary.org as the source. 
Z:This music is in the public domain. You may freely use this score for personal and congregational worship. If you reproduce the score, please credit Hymnary.org as the source.
%%score ( 1 2 ) ( 3 4 )
L:1/8
M:4/4
K:F
V:1 treble nm="SOPRANO ALTO" snm="S. A."
V:2 treble 
V:3 bass nm="TENOR BASS" snm="T. B."
V:4 bass 
V:1
 D2 DD F3 G | F2 E2 D4 | F2 GG | A3 A | G2 F2 E4 | A2 AA c3 d |1 c2 =B2 A4 | A2 GG F3 G | %8
 F2 E2 D4 |] %9
V:2
 D2 DD D3 D | D2 ^C2 A,4 | D2 EE | F3 D | ^C2 D2 C4 | A2 AA E3 F |1 E2 ^G2 E4 | D2 D^C D3 D | %8
 D2 ^C2 A,4 |] %9
V:3
 D,2 D,D, A,3 B, | A,2 G,2 F,4 | A,2 CC | C3 F, | G,2 ^G,2 A,4 | A,2 A,A, A,3 A, |1 A,2 D2 C4 | %7
 A,2 A,A, A,3 B, | A,2 G,2 F,4 |] %9
V:4
 D,2 D,D, D,3 G,, | A,,2 A,,2 D,4 | D,2 C,C, | F,3 F, | E,2 D,2 A,,4 | A,2 A,A, A,3 D, |1 %6
 E,2 E,2 A,4 | F,2 E,E, D,3 G,, | A,,2 A,,2 D,4 |] %9

